docs/.gitbook/assets/icon-signal-0-16@light.svg

<svg width="32" height="32" viewBox="0 0 16 16" fill="none" xmlns="http://www.w3.org/2000/svg">
<rect x="0" y="0" width="16" height="16" fill="#fff"/>
<path opacity="0.3" fill-rule="evenodd" clip-rule="evenodd" d="M13.75 2C13.3358 2 13 2.33579 13 2.75V13.25C13 13.6642 13.3358 14 13.75 14H14.25C14.6642 14 15 13.6642 15 13.25V2.75C15 2.33579 14.6642 2 14.25 2H13.75ZM9.75 4C9.33579 4 9 4.33579 9 4.75V13.25C9 13.6642 9.33579 14 9.75 14H10.25C10.6642 14 11 13.6642 11 13.25V4.75C11 4.33579 10.6642 4 10.25 4H9.75ZM5.75 7C5.33579 7 5 7.33579 5 7.75V13.25C5 13.6642 5.33579 14 5.75 14H6.25C6.66421 14 7 13.6642 7 13.25V7.75C7 7.33579 6.66421 7 6.25 7H5.75ZM1.75 9C1.33579 9 1 9.33579 1 9.75V13.25C1 13.6642 1.33579 14 1.75 14H2.25C2.66421 14 3 13.6642 3 13.25V9.75C3 9.33579 2.66421 9 2.25 9H1.75Z" fill="#000"/>
</svg>

<svg xmlns="http://www.w3.org/2000/svg" width="32" height="32" fill="none" viewBox="0 0 16 16"><path fill="#fff" d="M0 0h16v16H0z"/><path fill="#000" fill-rule="evenodd" d="M13.75 2a.75.75 0 0 0-.75.75v10.5c0 .414.336.75.75.75h.5a.75.75 0 0 0 .75-.75V2.75a.75.75 0 0 0-.75-.75zm-4 2a.75.75 0 0 0-.75.75v8.5c0 .414.336.75.75.75h.5a.75.75 0 0 0 .75-.75v-8.5a.75.75 0 0 0-.75-.75zm-4 3a.75.75 0 0 0-.75.75v5.5c0 .414.336.75.75.75h.5a.75.75 0 0 0 .75-.75v-5.5A.75.75 0 0 0 6.25 7zm-4 2a.75.75 0 0 0-.75.75v3.5c0 .414.336.75.75.75h.5a.75.75 0 0 0 .75-.75v-3.5A.75.75 0 0 0 2.25 9z" clip-rule="evenodd" opacity=".3"/></svg>
